svgs/light/rectangle-terminal.svg

<svg xmlns="http://www.w3.org/2000/svg" viewBox="0 0 512 512"><!-- Font Awesome Pro 6.0.0-alpha2 by @fontawesome - https://fontawesome.com License - https://fontawesome.com/license (Commercial License) --><path d="M448 32H64C28.654 32 0 60.656 0 96V416C0 451.344 28.654 480 64 480H448C483.346 480 512 451.344 512 416V96C512 60.656 483.346 32 448 32ZM480 416C480 433.645 465.645 448 448 448H64C46.355 448 32 433.645 32 416V96C32 78.355 46.355 64 64 64H448C465.645 64 480 78.355 480 96V416ZM240 256C240 251.344 237.953 246.906 234.406 243.844L122.406 147.844C115.734 142.125 105.625 142.906 99.859 149.594S94.875 166.406 101.594 172.156L199.422 256L101.594 339.844C94.875 345.594 94.094 355.719 99.859 362.406C103.016 366.094 107.5 368 112 368C115.688 368 119.391 366.719 122.406 364.156L234.406 268.156C237.953 265.094 240 260.656 240 256ZM400 352H240C231.156 352 224 359.156 224 368S231.156 384 240 384H400C408.844 384 416 376.844 416 368S408.844 352 400 352Z"/></svg>

<svg xmlns="http://www.w3.org/2000/svg" viewBox="0 0 512 512"><!--! Font Awesome Pro 6.4.0 by @fontawesome - https://fontawesome.com License - https://fontawesome.com/license (Commercial License) Copyright 2023 Fonticons, Inc. --><path d="M448 64c17.7 0 32 14.3 32 32V416c0 17.7-14.3 32-32 32H64c-17.7 0-32-14.3-32-32V96c0-17.7 14.3-32 32-32H448zM64 32C28.7 32 0 60.7 0 96V416c0 35.3 28.7 64 64 64H448c35.3 0 64-28.7 64-64V96c0-35.3-28.7-64-64-64H64zM99.9 149.6c-5.8 6.7-5 16.8 1.7 22.6L199.4 256l-97.8 83.9c-6.7 5.8-7.5 15.8-1.7 22.6s15.9 7.5 22.6 1.7l112-96c3.5-3 5.6-7.5 5.6-12.1s-2-9.1-5.6-12.1l-112-96c-6.7-5.8-16.8-5-22.6 1.7zM224 352c-8.8 0-16 7.2-16 16s7.2 16 16 16H400c8.8 0 16-7.2 16-16s-7.2-16-16-16H224z"/></svg>
